web/packages/design/src/ResourceIcon/assets/excalidraw.svg

<svg width="72" height="72" viewBox="0 0 72 72" fill="none" xmlns="http://www.w3.org/2000/svg">
<g clip-path="url(#clip0_15940_7303)">
<path d="M71.8391 59.3458C71.776 59.2881 71.6989 59.2478 71.6154 59.2289C71.5319 59.21 71.445 59.2131 71.3631 59.238C67.5996 53.678 62.8121 48.4055 58.1772 43.3126L57.4138 42.4773C57.4138 42.3785 57.3689 42.2886 57.306 42.2078C57.23 42.1121 57.1212 42.048 57.0006 42.0281L56.8479 41.8665L56.7401 41.7856C56.6054 41.4982 56.2641 41.2826 55.8868 41.4713C54.4676 42.1988 53.1921 43.2407 51.9346 44.2018C50.255 45.4863 48.6112 46.8246 47.0663 48.2618C46.4375 48.8456 45.8178 49.4564 45.2968 50.1391C45.0453 50.4714 45.2339 50.7858 45.5393 50.9205C44.4435 51.9984 43.3387 53.1211 42.2339 54.2798C42.1351 54.3876 42.0812 54.5313 42.0902 54.6751C42.0992 54.8188 42.171 54.9535 42.2878 55.0433L44.2279 56.5254C44.2279 56.5254 44.2369 56.5523 44.2549 56.5613C47.0304 59.3009 51.8987 63.1003 57.0545 67.1244C57.818 67.7262 58.5904 68.328 59.3629 68.9298C59.7132 69.3519 60.0455 69.7741 60.3689 70.1873C60.5396 70.4118 60.8629 70.4568 61.0875 70.2861C61.2042 70.3759 61.321 70.4747 61.4378 70.5645C61.4909 70.6058 61.5516 70.6363 61.6164 70.6541C61.6812 70.6719 61.749 70.6768 61.8157 70.6685C61.8824 70.6601 61.9468 70.6387 62.0053 70.6055C62.0637 70.5722 62.1151 70.5278 62.1564 70.4747C62.2192 70.3939 62.2462 70.2951 62.2552 70.1963C62.2911 70.1963 62.318 70.2232 62.345 70.2232C62.4797 70.2232 62.6234 70.1693 62.7222 70.0615L71.8661 60.0734C71.9116 60.0242 71.9469 59.9664 71.9698 59.9034C71.9927 59.8404 72.0027 59.7734 71.9994 59.7065C71.996 59.6396 71.9793 59.574 71.9503 59.5136C71.9212 59.4532 71.8804 59.3992 71.8302 59.3548L71.8391 59.3458ZM45.5842 55.8876C45.6471 55.9685 45.71 56.0403 45.7729 56.1122C46.8148 56.9925 47.9286 57.9446 49.0603 58.9146L44.4615 55.4026C44.4615 55.4026 44.174 55.205 43.9944 55.0793C43.8956 55.0074 43.8058 54.9355 43.7159 54.8637L43.3746 54.5763C43.3746 54.5763 43.4375 54.5134 43.4644 54.4774L43.7788 54.1631C45.3238 52.6002 47.9735 49.9953 49.3388 48.7199C47.8927 50.175 44.9645 54.4415 45.5932 55.8876H45.5842ZM61.33 68.292L57.5395 65.3998C56.0575 63.8638 54.4586 62.3458 52.8329 60.8817C54.8808 62.4626 56.6323 63.801 56.8928 64.0345C58.8779 65.804 58.788 65.4806 60.1533 66.6483L61.7971 67.8429C61.6354 67.9867 61.4737 68.1393 61.321 68.2831L61.33 68.292ZM62.2821 69.0196L62.2102 68.9657C62.354 68.8489 62.5067 68.7412 62.6504 68.6244L62.2911 69.0196H62.2821ZM2.16439 10.366C2.29014 11.0127 2.4069 11.6504 2.52367 12.2612C3.14344 15.5846 3.7183 18.5757 4.81413 20.8482L5.24527 22.5728C5.41593 23.2284 5.65845 24.0458 5.88301 24.2165C8.44293 26.48 12.3681 29.8573 16.5628 33.037C16.7514 33.1807 17.0119 33.1717 17.1916 33.028C17.2006 33.046 17.2185 33.055 17.2275 33.0639C17.3263 33.1538 17.4431 33.1987 17.5688 33.1987C17.7125 33.1987 17.8473 33.1448 17.9461 33.028C23.3174 27.0549 27.3145 22.1416 30.1618 18.0278C30.3415 17.8032 30.4313 17.5427 30.4223 17.2733C30.602 17.0577 30.7906 16.8421 30.9613 16.6625C31.0132 16.6091 31.0526 16.5449 31.0767 16.4743C31.1007 16.4038 31.1087 16.3289 31.1001 16.2549C31.0915 16.1809 31.0665 16.1098 31.0269 16.0466C30.9874 15.9835 30.9343 15.93 30.8714 15.89C30.8604 15.7675 30.8063 15.653 30.7187 15.5667C29.4702 14.363 28.545 13.4918 27.6109 12.6205C25.9582 11.0756 24.2516 9.47673 20.6317 5.87488C20.6138 5.85691 20.5868 5.83895 20.5689 5.82098C20.5139 5.76397 20.4462 5.72086 20.3713 5.69523C19.3742 5.34493 17.3263 4.99463 14.7484 4.54552C10.9579 3.8988 5.76624 3.00058 1.0955 1.60834H1.05957V1.59936C1.05957 1.59936 1.04161 1.59936 1.03263 1.61732H1.02365L1.05957 1.59936C1.05957 1.59936 0.781128 1.60834 0.727235 1.63529C0.655378 1.67122 0.601486 1.71613 0.556575 1.77002C0.511664 1.82392 0.475734 1.87781 0.134411 1.94967C-0.206912 2.02153 0.206269 1.94967 0.233216 1.94967H0.134411V1.97661C0.197287 2.28201 0.179322 2.49758 0.278126 2.84789C0.260162 2.93771 0.466753 3.76406 0.4937 3.8449L2.13744 10.366H2.16439ZM29.9642 16.2403C29.9642 16.2403 29.9373 16.2762 29.9283 16.2852L29.3534 15.6475C29.5511 15.8361 29.7487 16.0247 29.9642 16.2403ZM23.5959 24.6746C23.5959 24.6746 23.533 24.7464 23.506 24.7824L23.4881 24.7644C23.524 24.7375 23.5599 24.7015 23.6048 24.6746H23.5959ZM19.9581 6.6204C20.2725 6.93477 21.521 8.10246 21.8084 8.38989C20.506 7.79706 17.2634 6.28806 15.7544 5.80302C17.2365 6.0635 19.2844 6.39584 19.9581 6.6204ZM2.73026 4.13233C3.48476 5.42577 4.07759 9.96177 4.67041 14.372C4.33807 12.9528 4.05064 11.5696 3.78118 10.2402C3.3141 7.94078 2.88296 5.88386 2.28115 4.06048C2.4069 4.06946 2.5596 4.08742 2.72128 4.10539C2.72128 4.11437 2.72128 4.12335 2.73924 4.13233H2.73026ZM2.46978 3.04549C2.26319 3.02753 2.07456 3.00956 1.91288 3.00058C1.89492 2.96465 1.88594 2.92872 1.87695 2.8928L2.46978 3.05448V3.04549ZM71.0218 2.38979C71.0577 2.1832 70.0337 1.276 70.3571 1.25804C71.1206 1.22211 71.1296 0.0454439 70.3571 0.0813726C69.3421 0.135266 68.3181 0.368801 67.3301 0.557427C65.5516 0.889768 63.7821 1.25804 62.0126 1.64427C58.0695 2.4886 54.1353 3.37783 50.246 4.43773C49.0244 4.77007 47.6771 5.06648 46.5543 5.6593C46.1771 5.85691 46.195 6.26111 46.4016 6.51261C46.3208 6.55752 46.2399 6.58447 46.1501 6.59345C45.8178 6.65633 45.4854 6.71022 45.1531 6.76411C45.0701 6.77737 44.9917 6.81098 44.9249 6.86195C44.8581 6.91291 44.805 6.97965 44.7703 7.05617C44.7356 7.1327 44.7204 7.21664 44.7261 7.30047C44.7317 7.38431 44.7581 7.46543 44.8028 7.53658C42.7189 10.3211 40.3476 13.3211 37.7787 16.4739C35.2547 19.3571 32.6319 22.429 29.9463 25.5818C21.494 35.5161 11.91 46.7797 1.29311 56.696C1.08652 56.8847 1.07754 57.208 1.26617 57.4146C1.31108 57.4685 1.37395 57.5044 1.43683 57.5314C1.29311 57.6661 1.1494 57.8009 1.00568 57.9266C0.915862 58.0074 0.879933 58.1063 0.861969 58.214C0.790112 58.2859 0.718255 58.3667 0.655379 58.4386C0.466754 58.6452 0.475735 58.9685 0.682325 59.1572C0.888915 59.3458 1.21227 59.3368 1.4009 59.1302C1.43683 59.0943 1.47275 59.0494 1.50868 59.0135C1.57919 58.939 1.66414 58.8797 1.75835 58.8391C1.85256 58.7986 1.95404 58.7777 2.0566 58.7777C2.15916 58.7777 2.26064 58.7986 2.35484 58.8391C2.44905 58.8797 2.534 58.939 2.60451 59.0135C3.22428 59.6781 3.80812 60.3069 4.35604 60.8907L3.11649 59.8578C3.01266 59.7713 2.87886 59.7294 2.74425 59.7412C2.60965 59.753 2.48516 59.8175 2.39792 59.9207C2.21828 60.1362 2.24522 60.4596 2.4608 60.6392L15.7724 71.8041C15.8712 71.8849 15.988 71.9208 16.1047 71.9208C16.2395 71.9208 16.3652 71.8669 16.464 71.7681L16.7874 71.4448C16.8814 71.4869 16.9861 71.4992 17.0873 71.4799C17.1885 71.4606 17.2813 71.4108 17.3533 71.337C35.3984 53.211 49.9316 39.5131 66.5756 27.2704C66.7283 27.1626 66.8001 26.983 66.7822 26.8123C66.8801 26.8016 66.9729 26.7629 67.0494 26.7007C67.1259 26.6386 67.1828 26.5557 67.2133 26.462C70.2852 17.0667 70.8781 8.74917 71.0577 4.66228C71.0577 4.63534 71.0667 4.61737 71.0757 4.59941C71.0936 4.5545 71.1026 4.50959 71.1116 4.47366C71.1385 4.37485 71.1565 4.303 71.1565 4.303C71.39 3.60239 71.3092 2.92872 71.0218 2.37183V2.38979ZM38.7578 17.0936C39.5662 16.1685 40.3656 15.2613 41.156 14.381C35.9823 21.1895 27.4133 31.6807 15.2784 44.1479C23.542 35.0041 31.8685 25.5279 38.7578 17.0936ZM9.52079 64.5285L9.49384 64.5016C9.59265 64.5195 9.6645 64.5375 9.67348 64.5375C9.62301 64.5282 9.57126 64.5282 9.52079 64.5375V64.5285ZM15.7185 70.2951L15.6736 70.2591L15.7005 70.2322C15.7185 70.2322 15.7275 70.2502 15.7365 70.2502C15.7365 70.2681 15.7185 70.2771 15.7095 70.2951H15.7185ZM23.2276 63.8189L24.4671 62.5255C24.4761 62.5345 24.4851 62.5524 24.4941 62.5704C24.0719 62.9836 23.6498 63.4057 23.2186 63.8189H23.2276ZM25.2396 61.8339C25.4731 61.5644 25.7426 61.25 26.0211 60.9177C26.03 60.9087 26.039 60.8907 26.057 60.8817C29.0121 57.8368 32.0571 54.7559 35.2008 51.675C35.2188 51.657 35.2457 51.6391 35.2637 51.6211C36.0362 51.0283 36.8985 50.3726 37.7069 49.7528C33.6469 53.6331 29.5241 57.6392 25.2396 61.8428V61.8339ZM44.686 11.6414C43.0153 13.8151 41.183 16.6355 39.6291 18.8901C34.7248 25.995 18.9341 43.3934 18.5838 43.7258C16.1496 46.0791 8.8112 53.1211 4.13148 57.5314C4.00573 57.6482 3.90693 57.747 3.82609 57.8458C3.76063 57.7777 3.70935 57.6972 3.67524 57.6091C3.64112 57.5211 3.62484 57.4271 3.62735 57.3326C3.62986 57.2382 3.6511 57.1452 3.68984 57.0591C3.72858 56.9729 3.78405 56.8953 3.85303 56.8308C26.1468 35.8125 39.674 18.3062 45.1711 10.6803C45.0543 10.9768 44.9555 11.3001 44.677 11.6594L44.686 11.6414ZM59.5156 18.0188L59.5066 18.0368C59.5066 18.0188 59.4886 17.9739 59.5156 18.0188ZM53.4077 21.8991C51.3777 20.7224 50.4256 18.9619 50.9735 17.1834L51.1442 16.5906C51.2161 16.42 51.2969 16.2493 51.3957 16.0786C51.9257 15.1984 52.7341 14.4169 53.6592 13.9588C53.7041 13.9409 53.749 13.9319 53.794 13.9229C53.7466 13.7999 53.7341 13.6663 53.758 13.5367C53.8029 13.2582 53.9826 13.0157 54.3508 13.0157C54.9526 13.0157 56.8209 13.5726 57.5305 14.1834C57.7461 14.3541 57.9527 14.5427 58.1413 14.7493C58.4108 15.0636 58.806 15.5756 59.0036 15.9439C59.1204 15.9978 59.2102 16.5008 59.3449 16.7613C59.4707 17.1745 59.5246 17.5966 59.5066 18.0188C59.5066 18.0368 59.5066 18.0367 59.5156 18.0457C59.4886 18.1086 59.5156 18.3781 59.4797 18.405C59.3898 19.0517 59.1563 19.6895 58.806 20.2464C58.7701 20.2913 58.7431 20.3452 58.7072 20.3901C58.7072 20.3991 58.6892 20.408 58.6803 20.426C58.4108 20.8122 58.0964 21.1715 57.7102 21.441C56.5784 22.2404 55.258 22.4829 53.9377 22.1506C53.7634 22.0842 53.5926 22.0092 53.4257 21.926L53.4077 21.8991ZM68.0217 20.435C67.5816 22.2763 67.0427 24.1985 66.4049 26.1656C66.378 26.2375 66.378 26.3093 66.378 26.3722C66.2882 26.3812 66.2073 26.4171 66.1355 26.471C62.1474 29.3992 58.294 32.4172 54.4766 35.552C57.7731 32.5699 61.1144 29.6058 64.5636 26.6147C65.5628 25.7462 66.2322 24.5598 66.4588 23.2554L66.9618 20.2284L66.9888 20.1386C67.2133 19.5008 68.1924 19.7793 68.0397 20.435H68.0217Z" fill="#6965DB"/>
</g>
<defs>
<clipPath id="clip0_15940_7303">
<rect width="72" height="72" fill="white" transform="translate(0 0.000488281)"/>
</clipPath>
</defs>
</svg>

<svg xmlns="http://www.w3.org/2000/svg" width="72" height="72" fill="none" viewBox="0 0 72 72"><g clip-path="url(#clip0_15940_7303)"><path fill="#6965db" d="M71.84 59.346a.49.49 0 0 0-.477-.108c-3.763-5.56-8.55-10.832-13.186-15.925l-.763-.836a.44.44 0 0 0-.108-.27.5.5 0 0 0-.305-.179l-.153-.161-.108-.081c-.135-.288-.476-.503-.853-.315-1.42.728-2.695 1.77-3.952 2.73-1.68 1.285-3.324 2.624-4.869 4.06-.629.585-1.248 1.195-1.77 1.878-.25.332-.062.647.243.781a147 147 0 0 0-3.305 3.36.54.54 0 0 0-.144.395c.01.144.081.279.198.368l1.94 1.482s.009.027.027.036c2.775 2.74 7.644 6.54 12.8 10.563q1.146.903 2.308 1.806c.35.422.682.844 1.006 1.257.17.225.494.27.718.1.117.089.234.188.35.277a.51.51 0 0 0 .72-.09.5.5 0 0 0 .098-.278c.036 0 .063.027.09.027a.52.52 0 0 0 .377-.162l9.144-9.988a.504.504 0 0 0-.036-.718zm-26.256-3.458q.095.118.189.224c1.042.88 2.156 1.833 3.287 2.803l-4.599-3.512-.467-.324q-.145-.108-.278-.215l-.341-.288s.063-.063.09-.099l.314-.314c1.545-1.563 4.194-4.168 5.56-5.443-1.446 1.455-4.374 5.721-3.746 7.168zM61.33 68.292 57.54 65.4a94 94 0 0 0-4.707-4.518c2.048 1.58 3.8 2.919 4.06 3.152 1.985 1.77 1.895 1.447 3.26 2.614l1.644 1.195c-.162.144-.323.296-.476.44zm.952.728-.072-.054c.144-.117.297-.225.44-.342l-.359.396zM2.164 10.366c.126.647.243 1.284.36 1.895.62 3.324 1.194 6.315 2.29 8.587l.431 1.725c.17.655.413 1.473.638 1.643 2.56 2.264 6.485 5.641 10.68 8.821a.51.51 0 0 0 .629-.009c.009.018.026.027.035.036q.152.135.342.135a.48.48 0 0 0 .377-.171c5.371-5.973 9.368-10.886 12.216-15 .18-.225.27-.485.26-.755.18-.215.369-.43.54-.61a.503.503 0 0 0-.09-.773.52.52 0 0 0-.153-.323 244 244 0 0 0-3.108-2.947c-1.653-1.544-3.36-3.143-6.98-6.745-.017-.018-.044-.036-.062-.054a.5.5 0 0 0-.198-.126c-.997-.35-3.045-.7-5.623-1.15-3.79-.646-8.982-1.544-13.652-2.937H1.06V1.6s-.018 0-.027.018h-.01L1.06 1.6s-.279.01-.333.036a.5.5 0 0 0-.17.135c-.045.054-.081.108-.423.18-.34.072.072 0 .1 0h-.1v.027c.063.305.045.52.144.87-.018.09.189.917.216.998l1.643 6.521zm27.8 5.874s-.027.036-.036.045l-.575-.637c.198.188.396.377.611.592m-6.368 8.435s-.063.071-.09.107l-.018-.018c.036-.026.072-.062.117-.09zM19.958 6.62c.315.315 1.563 1.482 1.85 1.77-1.302-.593-4.545-2.102-6.054-2.587 1.483.26 3.53.593 4.204.817M2.73 4.132c.755 1.294 1.348 5.83 1.94 10.24-.332-1.42-.62-2.802-.889-4.132-.467-2.3-.898-4.356-1.5-6.18.126.01.279.027.44.045 0 .01 0 .018.018.027zm-.26-1.087c-.207-.017-.395-.035-.557-.044a.5.5 0 0 1-.036-.108l.593.161zm68.552-.655c.036-.207-.988-1.114-.665-1.132.764-.036.773-1.213 0-1.177-1.015.054-2.039.288-3.027.476-1.778.333-3.548.701-5.317 1.087-3.943.845-7.878 1.734-11.767 2.794-1.222.332-2.569.628-3.692 1.221-.377.198-.359.602-.152.854a.6.6 0 0 1-.252.08c-.332.063-.665.117-.997.171a.508.508 0 0 0-.35.773c-2.084 2.784-4.455 5.784-7.024 8.937a903 903 0 0 0-7.833 9.108C21.494 35.516 11.91 46.78 1.293 56.696a.51.51 0 0 0-.027.719c.045.053.108.09.17.116-.143.135-.287.27-.43.396a.47.47 0 0 0-.144.287 5 5 0 0 0-.207.225.51.51 0 0 0 .027.718.51.51 0 0 0 .719-.027c.036-.036.072-.08.108-.117a.755.755 0 0 1 1.096 0c.62.665 1.203 1.294 1.751 1.878l-1.24-1.033a.51.51 0 0 0-.718.063.51.51 0 0 0 .063.718l13.311 11.165c.1.08.216.117.333.117.134 0 .26-.054.359-.153l.323-.323a.5.5 0 0 0 .566-.108C35.398 53.211 49.932 39.513 66.576 27.27a.5.5 0 0 0 .206-.458.51.51 0 0 0 .431-.35c3.072-9.395 3.665-17.713 3.845-21.8a.13.13 0 0 1 .018-.063c.018-.045.027-.09.036-.125l.044-.171c.234-.7.153-1.374-.134-1.931zM38.758 17.094a268 268 0 0 1 2.398-2.713c-5.174 6.808-13.743 17.3-25.878 29.767 8.264-9.144 16.59-18.62 23.48-27.054M9.52 64.529l-.027-.027c.099.017.17.035.18.035a.4.4 0 0 0-.153 0zm6.198 5.766-.045-.036.027-.027c.018 0 .026.018.035.018 0 .018-.018.027-.027.045zm7.509-6.476 1.24-1.294a.2.2 0 0 1 .026.045c-.422.414-.844.836-1.275 1.249zm2.012-1.985c.233-.27.503-.584.781-.916.009-.01.018-.027.036-.036 2.955-3.045 6-6.126 9.144-9.207.018-.018.045-.036.063-.054.772-.593 1.634-1.248 2.443-1.868a1326 1326 0 0 0-12.467 12.09zM44.686 11.64c-1.67 2.174-3.503 4.995-5.057 7.25-4.904 7.104-20.695 24.502-21.045 24.835A2064 2064 0 0 1 4.13 57.53a3 3 0 0 0-.305.315.713.713 0 0 1 .027-1.015C26.146 35.811 39.673 18.305 45.17 10.68c-.117.296-.215.62-.494.978zm14.83 6.378-.01.018c0-.018-.017-.063.01-.018m-6.108 3.88c-2.03-1.177-2.982-2.937-2.434-4.716l.17-.592c.072-.171.153-.342.252-.512.53-.88 1.338-1.662 2.263-2.12a1 1 0 0 1 .135-.036.7.7 0 0 1-.036-.386c.045-.279.225-.521.593-.521.602 0 2.47.557 3.18 1.167.215.171.422.36.61.566.27.315.665.827.863 1.195.116.054.206.557.34.817.127.413.18.836.163 1.258 0 .018 0 .018.009.027-.027.063 0 .332-.036.359a4.7 4.7 0 0 1-.674 1.841c-.036.045-.063.1-.099.144 0 .01-.018.018-.027.036-.27.386-.584.746-.97 1.015-1.132.8-2.452 1.042-3.772.71a6 6 0 0 1-.512-.225zm14.614-1.464a76 76 0 0 1-1.617 5.73c-.027.073-.027.144-.027.207a.5.5 0 0 0-.243.099 272 272 0 0 0-11.658 9.081 640 640 0 0 1 10.087-8.937 5.76 5.76 0 0 0 1.895-3.36l.503-3.027.027-.09c.224-.637 1.203-.359 1.05.297z"/></g><defs><clipPath id="clip0_15940_7303"><path fill="#fff" d="M0 0h72v72H0z"/></clipPath></defs></svg>
